X: 640
P: Longways for as many as will
M: 6/4
L: 1/4
K: Bb
|:\
|:\
|:\
d2=e f>gf | gab a>gf |
g3 d=ef | f2=e f2c |\
d3 c2B | B2A B3 :|

